images/171931.svg

<?xml version="1.0" encoding="UTF-8"?>
<svg xmlns="http://www.w3.org/2000/svg" xmlns:xlink="http://www.w3.org/1999/xlink" width="300pt" height="300pt" viewBox="0 0 300 300" version="1.1">
<defs>
<g>
<symbol overflow="visible" id="glyph0-0">
<path style="stroke:none;" d="M 0.59375 2.125 L 0.59375 -8.46875 L 6.59375 -8.46875 L 6.59375 2.125 Z M 1.265625 1.453125 L 5.9375 1.453125 L 5.9375 -7.78125 L 1.265625 -7.78125 Z M 1.265625 1.453125 "/>
</symbol>
<symbol overflow="visible" id="glyph0-1">
<path style="stroke:none;" d="M 4.734375 -7.953125 C 3.867188 -7.953125 3.179688 -7.628906 2.671875 -6.984375 C 2.171875 -6.347656 1.921875 -5.472656 1.921875 -4.359375 C 1.921875 -3.265625 2.171875 -2.394531 2.671875 -1.75 C 3.179688 -1.113281 3.867188 -0.796875 4.734375 -0.796875 C 5.585938 -0.796875 6.265625 -1.113281 6.765625 -1.75 C 7.273438 -2.394531 7.53125 -3.265625 7.53125 -4.359375 C 7.53125 -5.472656 7.273438 -6.347656 6.765625 -6.984375 C 6.265625 -7.628906 5.585938 -7.953125 4.734375 -7.953125 Z M 4.734375 -8.90625 C 5.953125 -8.90625 6.925781 -8.492188 7.65625 -7.671875 C 8.394531 -6.847656 8.765625 -5.742188 8.765625 -4.359375 C 8.765625 -2.984375 8.394531 -1.882812 7.65625 -1.0625 C 6.925781 -0.238281 5.953125 0.171875 4.734375 0.171875 C 3.503906 0.171875 2.519531 -0.238281 1.78125 -1.0625 C 1.039062 -1.882812 0.671875 -2.984375 0.671875 -4.359375 C 0.671875 -5.742188 1.039062 -6.847656 1.78125 -7.671875 C 2.519531 -8.492188 3.503906 -8.90625 4.734375 -8.90625 Z M 4.734375 -8.90625 "/>
</symbol>
<symbol overflow="visible" id="glyph0-2">
<path style="stroke:none;" d="M 1.171875 -8.75 L 2.359375 -8.75 L 2.359375 -5.15625 L 6.65625 -5.15625 L 6.65625 -8.75 L 7.84375 -8.75 L 7.84375 0 L 6.65625 0 L 6.65625 -4.171875 L 2.359375 -4.171875 L 2.359375 0 L 1.171875 0 Z M 1.171875 -8.75 "/>
</symbol>
</g>
</defs>
<g id="surface27505">
<rect x="0" y="0" width="300" height="300" style="fill:rgb(100%,100%,100%);fill-opacity:1;stroke:none;"/>
<path style="fill:none;stroke-width:1.2;stroke-linecap:butt;stroke-linejoin:miter;stroke:rgb(100%,0%,0%);stroke-opacity:1;stroke-miterlimit:10;" d="M 172.707031 137.066406 L 187.945312 137.238281 "/>
<path style="fill:none;stroke-width:1.2;stroke-linecap:butt;stroke-linejoin:miter;stroke:rgb(0%,0%,0%);stroke-opacity:1;stroke-miterlimit:10;" d="M 187.945312 137.238281 L 203.1875 137.414062 "/>
<path style="fill:none;stroke-width:1.2;stroke-linecap:butt;stroke-linejoin:miter;stroke:rgb(0%,0%,0%);stroke-opacity:1;stroke-miterlimit:10;" d="M 157.164062 163.285156 L 164.9375 150.175781 "/>
<path style="fill:none;stroke-width:1.2;stroke-linecap:butt;stroke-linejoin:miter;stroke:rgb(100%,0%,0%);stroke-opacity:1;stroke-miterlimit:10;" d="M 164.9375 150.175781 L 172.707031 137.066406 "/>
<path style=" stroke:none;fill-rule:nonzero;fill:rgb(100%,100%,100%);fill-opacity:1;" d="M 167.707031 130.066406 L 177.707031 130.066406 L 177.707031 144.066406 L 167.707031 144.066406 Z M 167.707031 130.066406 "/>
<g style="fill:rgb(100%,0%,0%);fill-opacity:1;">
  <use xlink:href="#glyph0-1" x="167.707031" y="141.205078"/>
</g>
<path style="fill:none;stroke-width:1.2;stroke-linecap:butt;stroke-linejoin:miter;stroke:rgb(0%,0%,0%);stroke-opacity:1;stroke-miterlimit:10;" d="M 203.1875 137.414062 L 218.121094 163.984375 "/>
<path style="fill:none;stroke-width:1.2;stroke-linecap:butt;stroke-linejoin:miter;stroke:rgb(0%,0%,0%);stroke-opacity:1;stroke-miterlimit:10;" d="M 210.929688 136.558594 L 222.878906 157.8125 "/>
<path style="fill:none;stroke-width:1.2;stroke-linecap:butt;stroke-linejoin:miter;stroke:rgb(0%,0%,0%);stroke-opacity:1;stroke-miterlimit:10;" d="M 218.730469 111.195312 L 203.1875 137.414062 "/>
<path style="fill:none;stroke-width:1.2;stroke-linecap:butt;stroke-linejoin:miter;stroke:rgb(0%,0%,0%);stroke-opacity:1;stroke-miterlimit:10;" d="M 218.121094 163.984375 L 202.578125 190.207031 "/>
<path style="fill:none;stroke-width:1.2;stroke-linecap:butt;stroke-linejoin:miter;stroke:rgb(0%,0%,0%);stroke-opacity:1;stroke-miterlimit:10;" d="M 218.121094 163.984375 L 248.601562 164.335938 "/>
<path style="fill:none;stroke-width:1.2;stroke-linecap:butt;stroke-linejoin:miter;stroke:rgb(0%,0%,0%);stroke-opacity:1;stroke-miterlimit:10;" d="M 199.453125 191.964844 L 206.921875 205.25 "/>
<path style="fill:none;stroke-width:1.2;stroke-linecap:butt;stroke-linejoin:miter;stroke:rgb(100%,0%,0%);stroke-opacity:1;stroke-miterlimit:10;" d="M 206.921875 205.25 L 214.390625 218.535156 "/>
<path style="fill:none;stroke-width:1.2;stroke-linecap:butt;stroke-linejoin:miter;stroke:rgb(0%,0%,0%);stroke-opacity:1;stroke-miterlimit:10;" d="M 205.707031 188.449219 L 213.171875 201.734375 "/>
<path style="fill:none;stroke-width:1.2;stroke-linecap:butt;stroke-linejoin:miter;stroke:rgb(100%,0%,0%);stroke-opacity:1;stroke-miterlimit:10;" d="M 213.171875 201.734375 L 220.640625 215.019531 "/>
<path style="fill:none;stroke-width:1.2;stroke-linecap:butt;stroke-linejoin:miter;stroke:rgb(0%,0%,0%);stroke-opacity:1;stroke-miterlimit:10;" d="M 202.578125 190.207031 L 172.101562 189.855469 "/>
<path style=" stroke:none;fill-rule:nonzero;fill:rgb(100%,100%,100%);fill-opacity:1;" d="M 212.515625 209.777344 L 222.515625 209.777344 L 222.515625 223.777344 L 212.515625 223.777344 Z M 212.515625 209.777344 "/>
<g style="fill:rgb(100%,0%,0%);fill-opacity:1;">
  <use xlink:href="#glyph0-1" x="212.515625" y="220.916016"/>
</g>
<path style="fill:none;stroke-width:1.2;stroke-linecap:butt;stroke-linejoin:miter;stroke:rgb(0%,0%,0%);stroke-opacity:1;stroke-miterlimit:10;" d="M 172.101562 189.855469 L 164.328125 202.964844 "/>
<path style="fill:none;stroke-width:1.2;stroke-linecap:butt;stroke-linejoin:miter;stroke:rgb(100%,0%,0%);stroke-opacity:1;stroke-miterlimit:10;" d="M 164.328125 202.964844 L 156.558594 216.074219 "/>
<path style="fill:none;stroke-width:1.2;stroke-linecap:butt;stroke-linejoin:miter;stroke:rgb(0%,0%,0%);stroke-opacity:1;stroke-miterlimit:10;" d="M 172.101562 189.855469 L 157.164062 163.285156 "/>
<path style="fill:none;stroke-width:1.2;stroke-linecap:butt;stroke-linejoin:miter;stroke:rgb(0%,0%,0%);stroke-opacity:1;stroke-miterlimit:10;" d="M 176.859375 183.683594 L 164.910156 162.429688 "/>
<path style=" stroke:none;fill-rule:nonzero;fill:rgb(100%,100%,100%);fill-opacity:1;" d="M 137.558594 209.074219 L 156.558594 209.074219 L 156.558594 223.074219 L 137.558594 223.074219 Z M 137.558594 209.074219 "/>
<g style="fill:rgb(100%,0%,0%);fill-opacity:1;">
  <use xlink:href="#glyph0-2" x="137.558594" y="220.212891"/>
  <use xlink:href="#glyph0-1" x="146.582031" y="220.212891"/>
</g>
<path style="fill:none;stroke-width:1.2;stroke-linecap:butt;stroke-linejoin:miter;stroke:rgb(0%,0%,0%);stroke-opacity:1;stroke-miterlimit:10;" d="M 157.164062 163.285156 L 126.6875 162.933594 "/>
<path style="fill:none;stroke-width:1.2;stroke-linecap:butt;stroke-linejoin:miter;stroke:rgb(0%,0%,0%);stroke-opacity:1;stroke-miterlimit:10;" d="M 126.6875 162.933594 L 111.75 136.363281 "/>
<path style="fill:none;stroke-width:1.2;stroke-linecap:butt;stroke-linejoin:miter;stroke:rgb(0%,0%,0%);stroke-opacity:1;stroke-miterlimit:10;" d="M 118.941406 163.792969 L 106.992188 142.535156 "/>
<path style="fill:none;stroke-width:1.2;stroke-linecap:butt;stroke-linejoin:miter;stroke:rgb(0%,0%,0%);stroke-opacity:1;stroke-miterlimit:10;" d="M 111.144531 189.15625 L 126.6875 162.933594 "/>
<path style="fill:none;stroke-width:1.2;stroke-linecap:butt;stroke-linejoin:miter;stroke:rgb(0%,0%,0%);stroke-opacity:1;stroke-miterlimit:10;" d="M 111.75 136.363281 L 81.269531 136.015625 "/>
<path style="fill:none;stroke-width:1.2;stroke-linecap:butt;stroke-linejoin:miter;stroke:rgb(0%,0%,0%);stroke-opacity:1;stroke-miterlimit:10;" d="M 81.269531 136.015625 L 73.804688 122.730469 "/>
<path style="fill:none;stroke-width:1.2;stroke-linecap:butt;stroke-linejoin:miter;stroke:rgb(100%,0%,0%);stroke-opacity:1;stroke-miterlimit:10;" d="M 73.804688 122.730469 L 66.335938 109.445312 "/>
<path style="fill:none;stroke-width:1.2;stroke-linecap:butt;stroke-linejoin:miter;stroke:rgb(0%,0%,0%);stroke-opacity:1;stroke-miterlimit:10;" d="M 81.269531 136.015625 L 65.730469 162.234375 "/>
<path style="fill:none;stroke-width:1.2;stroke-linecap:butt;stroke-linejoin:miter;stroke:rgb(0%,0%,0%);stroke-opacity:1;stroke-miterlimit:10;" d="M 85.886719 142.292969 L 73.453125 163.269531 "/>
<path style="fill:none;stroke-width:1.2;stroke-linecap:butt;stroke-linejoin:miter;stroke:rgb(100%,0%,0%);stroke-opacity:1;stroke-miterlimit:10;" d="M 66.335938 109.445312 L 74.105469 96.332031 "/>
<path style="fill:none;stroke-width:1.2;stroke-linecap:butt;stroke-linejoin:miter;stroke:rgb(0%,0%,0%);stroke-opacity:1;stroke-miterlimit:10;" d="M 74.105469 96.332031 L 81.878906 83.222656 "/>
<path style=" stroke:none;fill-rule:nonzero;fill:rgb(100%,100%,100%);fill-opacity:1;" d="M 61.335938 102.445312 L 71.335938 102.445312 L 71.335938 116.445312 L 61.335938 116.445312 Z M 61.335938 102.445312 "/>
<g style="fill:rgb(100%,0%,0%);fill-opacity:1;">
  <use xlink:href="#glyph0-1" x="61.335938" y="113.583984"/>
</g>
<path style="fill:none;stroke-width:1.2;stroke-linecap:butt;stroke-linejoin:miter;stroke:rgb(0%,0%,0%);stroke-opacity:1;stroke-miterlimit:10;" d="M 65.730469 162.234375 L 50.488281 162.058594 "/>
<path style="fill:none;stroke-width:1.2;stroke-linecap:butt;stroke-linejoin:miter;stroke:rgb(100%,0%,0%);stroke-opacity:1;stroke-miterlimit:10;" d="M 50.488281 162.058594 L 35.25 161.882812 "/>
<path style="fill:none;stroke-width:1.2;stroke-linecap:butt;stroke-linejoin:miter;stroke:rgb(0%,0%,0%);stroke-opacity:1;stroke-miterlimit:10;" d="M 65.730469 162.234375 L 80.664062 188.804688 "/>
<path style=" stroke:none;fill-rule:nonzero;fill:rgb(100%,100%,100%);fill-opacity:1;" d="M 16.25 154.882812 L 35.25 154.882812 L 35.25 168.882812 L 16.25 168.882812 Z M 16.25 154.882812 "/>
<g style="fill:rgb(100%,0%,0%);fill-opacity:1;">
  <use xlink:href="#glyph0-2" x="16.25" y="166.021484"/>
  <use xlink:href="#glyph0-1" x="25.273438" y="166.021484"/>
</g>
<path style="fill:none;stroke-width:1.2;stroke-linecap:butt;stroke-linejoin:miter;stroke:rgb(0%,0%,0%);stroke-opacity:1;stroke-miterlimit:10;" d="M 80.664062 188.804688 L 111.144531 189.15625 "/>
<path style="fill:none;stroke-width:1.2;stroke-linecap:butt;stroke-linejoin:miter;stroke:rgb(0%,0%,0%);stroke-opacity:1;stroke-miterlimit:10;" d="M 83.796875 181.667969 L 108.179688 181.949219 "/>
<path style="fill:none;stroke-width:1.2;stroke-linecap:butt;stroke-linejoin:miter;stroke:rgb(0%,0%,0%);stroke-opacity:1;stroke-miterlimit:10;" d="M 248.601562 164.335938 L 256.070312 177.621094 "/>
<path style="fill:none;stroke-width:1.2;stroke-linecap:butt;stroke-linejoin:miter;stroke:rgb(100%,0%,0%);stroke-opacity:1;stroke-miterlimit:10;" d="M 256.070312 177.621094 L 263.535156 190.90625 "/>
<path style="fill:none;stroke-width:1.2;stroke-linecap:butt;stroke-linejoin:miter;stroke:rgb(0%,0%,0%);stroke-opacity:1;stroke-miterlimit:10;" d="M 248.601562 164.335938 L 264.144531 138.117188 "/>
<path style="fill:none;stroke-width:1.2;stroke-linecap:butt;stroke-linejoin:miter;stroke:rgb(0%,0%,0%);stroke-opacity:1;stroke-miterlimit:10;" d="M 243.984375 158.058594 L 256.417969 137.082031 "/>
<path style=" stroke:none;fill-rule:nonzero;fill:rgb(100%,100%,100%);fill-opacity:1;" d="M 254.535156 183.90625 L 273.535156 183.90625 L 273.535156 197.90625 L 254.535156 197.90625 Z M 254.535156 183.90625 "/>
<g style="fill:rgb(100%,0%,0%);fill-opacity:1;">
  <use xlink:href="#glyph0-1" x="254.535156" y="195.044922"/>
  <use xlink:href="#glyph0-2" x="263.980469" y="195.044922"/>
</g>
<path style="fill:none;stroke-width:1.2;stroke-linecap:butt;stroke-linejoin:miter;stroke:rgb(0%,0%,0%);stroke-opacity:1;stroke-miterlimit:10;" d="M 264.144531 138.117188 L 249.207031 111.546875 "/>
<path style="fill:none;stroke-width:1.2;stroke-linecap:butt;stroke-linejoin:miter;stroke:rgb(0%,0%,0%);stroke-opacity:1;stroke-miterlimit:10;" d="M 249.207031 111.546875 L 256.980469 98.433594 "/>
<path style="fill:none;stroke-width:1.2;stroke-linecap:butt;stroke-linejoin:miter;stroke:rgb(100%,0%,0%);stroke-opacity:1;stroke-miterlimit:10;" d="M 256.980469 98.433594 L 264.75 85.324219 "/>
<path style="fill:none;stroke-width:1.2;stroke-linecap:butt;stroke-linejoin:miter;stroke:rgb(0%,0%,0%);stroke-opacity:1;stroke-miterlimit:10;" d="M 249.207031 111.546875 L 218.730469 111.195312 "/>
<path style="fill:none;stroke-width:1.2;stroke-linecap:butt;stroke-linejoin:miter;stroke:rgb(0%,0%,0%);stroke-opacity:1;stroke-miterlimit:10;" d="M 246.078125 118.683594 L 221.695312 118.402344 "/>
<path style=" stroke:none;fill-rule:nonzero;fill:rgb(100%,100%,100%);fill-opacity:1;" d="M 255.75 78.324219 L 274.75 78.324219 L 274.75 92.324219 L 255.75 92.324219 Z M 255.75 78.324219 "/>
<g style="fill:rgb(100%,0%,0%);fill-opacity:1;">
  <use xlink:href="#glyph0-1" x="255.75" y="89.462891"/>
  <use xlink:href="#glyph0-2" x="265.195312" y="89.462891"/>
</g>
</g>
</svg>

<svg xmlns="http://www.w3.org/2000/svg" xmlns:xlink="http://www.w3.org/1999/xlink" width="300pt" height="300pt" viewBox="0 0 300 300"><defs><symbol overflow="visible"><path d="M.594 2.125V-8.47h6V2.126zm.672-.672h4.671V-7.78h-4.67zm0 0"/></symbol><symbol overflow="visible" id="a"><path d="M4.734-7.953c-.867 0-1.554.324-2.062.97-.5.635-.75 1.51-.75 2.624 0 1.094.25 1.965.75 2.61.508.637 1.195.953 2.062.953.852 0 1.532-.316 2.032-.953.507-.645.765-1.516.765-2.61 0-1.113-.257-1.988-.764-2.624-.5-.645-1.18-.97-2.032-.97zm0-.953c1.22 0 2.192.414 2.922 1.234.74.824 1.11 1.93 1.11 3.313 0 1.376-.37 2.477-1.11 3.298C6.926-.24 5.953.17 4.734.17c-1.23 0-2.214-.41-2.953-1.234C1.04-1.882.673-2.984.673-4.36c0-1.382.367-2.488 1.11-3.312.738-.82 1.722-1.234 2.952-1.234zm0 0"/></symbol><symbol overflow="visible" id="b"><path d="M1.172-8.75H2.36v3.594h4.296V-8.75h1.188V0H6.656v-4.172H2.36V0H1.17zm0 0"/></symbol></defs><g><path fill="#fff" d="M0 0h300v300H0z"/><path d="M172.707 137.066l15.238.172" stroke-width="1.2" stroke="#f00" stroke-miterlimit="10" fill="none"/><path d="M187.945 137.238l15.243.176M157.164 163.285l7.774-13.11" stroke-width="1.2" stroke="#000" stroke-miterlimit="10" fill="none"/><path d="M164.938 150.176l7.77-13.11" stroke-width="1.2" stroke="#f00" stroke-miterlimit="10" fill="none"/><path d="M167.707 130.066h10v14h-10zm0 0" fill="#fff"/><use xlink:href="#a" x="167.707" y="141.205" fill="#f00"/><path d="M203.188 137.414l14.933 26.57M210.93 136.56l11.95 21.252M218.73 111.195l-15.542 26.22M218.12 163.984l-15.542 26.223M218.12 163.984l30.482.352M199.453 191.965l7.47 13.285" stroke-width="1.2" stroke="#000" stroke-miterlimit="10" fill="none"/><path d="M206.922 205.25l7.47 13.285" stroke-width="1.2" stroke="#f00" stroke-miterlimit="10" fill="none"/><path d="M205.707 188.45l7.465 13.284" stroke-width="1.2" stroke="#000" stroke-miterlimit="10" fill="none"/><path d="M213.172 201.734l7.47 13.286" stroke-width="1.2" stroke="#f00" stroke-miterlimit="10" fill="none"/><path d="M202.578 190.207l-30.476-.352" stroke-width="1.2" stroke="#000" stroke-miterlimit="10" fill="none"/><path d="M212.516 209.777h10v14h-10zm0 0" fill="#fff"/><use xlink:href="#a" x="212.516" y="220.916" fill="#f00"/><path d="M172.102 189.855l-7.774 13.11" stroke-width="1.2" stroke="#000" stroke-miterlimit="10" fill="none"/><path d="M164.328 202.965l-7.77 13.11" stroke-width="1.2" stroke="#f00" stroke-miterlimit="10" fill="none"/><path d="M172.102 189.855l-14.938-26.57M176.86 183.684l-11.95-21.254" stroke-width="1.2" stroke="#000" stroke-miterlimit="10" fill="none"/><path d="M137.56 209.074h19v14h-19zm0 0" fill="#fff"/><g fill="#f00"><use xlink:href="#b" x="137.559" y="220.213"/><use xlink:href="#a" x="146.582" y="220.213"/></g><path d="M157.164 163.285l-30.476-.35M126.688 162.934l-14.938-26.57M118.94 163.793l-11.948-21.258M111.145 189.156l15.543-26.222M111.75 136.363l-30.48-.347M81.27 136.016l-7.465-13.286" stroke-width="1.2" stroke="#000" stroke-miterlimit="10" fill="none"/><path d="M73.805 122.73l-7.47-13.285" stroke-width="1.2" stroke="#f00" stroke-miterlimit="10" fill="none"/><path d="M81.27 136.016l-15.54 26.218M85.887 142.293L73.453 163.27" stroke-width="1.2" stroke="#000" stroke-miterlimit="10" fill="none"/><path d="M66.336 109.445l7.77-13.113" stroke-width="1.2" stroke="#f00" stroke-miterlimit="10" fill="none"/><path d="M74.105 96.332l7.774-13.11" stroke-width="1.2" stroke="#000" stroke-miterlimit="10" fill="none"/><path d="M61.336 102.445h10v14h-10zm0 0" fill="#fff"/><use xlink:href="#a" x="61.336" y="113.584" fill="#f00"/><path d="M65.73 162.234l-15.242-.175" stroke-width="1.2" stroke="#000" stroke-miterlimit="10" fill="none"/><path d="M50.488 162.06l-15.238-.177" stroke-width="1.2" stroke="#f00" stroke-miterlimit="10" fill="none"/><path d="M65.73 162.234l14.934 26.57" stroke-width="1.2" stroke="#000" stroke-miterlimit="10" fill="none"/><path d="M16.25 154.883h19v14h-19zm0 0" fill="#fff"/><g fill="#f00"><use xlink:href="#b" x="16.25" y="166.021"/><use xlink:href="#a" x="25.273" y="166.021"/></g><path d="M80.664 188.805l30.48.35M83.797 181.668l24.383.28M248.602 164.336l7.468 13.285" stroke-width="1.2" stroke="#000" stroke-miterlimit="10" fill="none"/><path d="M256.07 177.62l7.465 13.286" stroke-width="1.2" stroke="#f00" stroke-miterlimit="10" fill="none"/><path d="M248.602 164.336l15.543-26.22M243.984 158.06l12.434-20.978" stroke-width="1.2" stroke="#000" stroke-miterlimit="10" fill="none"/><path d="M254.535 183.906h19v14h-19zm0 0" fill="#fff"/><g fill="#f00"><use xlink:href="#a" x="254.535" y="195.045"/><use xlink:href="#b" x="263.98" y="195.045"/></g><path d="M264.145 138.117l-14.938-26.57M249.207 111.547l7.773-13.113" stroke-width="1.2" stroke="#000" stroke-miterlimit="10" fill="none"/><path d="M256.98 98.434l7.77-13.11" stroke-width="1.2" stroke="#f00" stroke-miterlimit="10" fill="none"/><path d="M249.207 111.547l-30.477-.352M246.078 118.684l-24.383-.282" stroke-width="1.2" stroke="#000" stroke-miterlimit="10" fill="none"/><path d="M255.75 78.324h19v14h-19zm0 0" fill="#fff"/><g fill="#f00"><use xlink:href="#a" x="255.75" y="89.463"/><use xlink:href="#b" x="265.195" y="89.463"/></g></g></svg>
